src/assets/img/shop.svg

<svg width="36" height="36" viewBox="0 0 36 36" fill="none" xmlns="http://www.w3.org/2000/svg">
<g clip-path="url(#clip0_2001_282)">
<path d="M34.8261 33.6522H28.7546C28.8849 33.2848 28.9565 32.8899 28.9565 32.4783C28.9565 32.0667 28.8849 31.6718 28.7546 31.3044H30.1304C30.7787 31.3044 31.3043 30.7788 31.3043 30.1304V27.7826C31.3043 26.3287 30.4187 25.0778 29.1586 24.541C29.2331 24.1685 31.0184 15.2418 31.0929 14.8696H32.4783C33.1265 14.8696 33.6522 14.344 33.6522 13.6957C33.6522 13.0474 33.1266 12.5217 32.4783 12.5217C29.9893 12.5217 30.6483 12.5217 28.3695 12.5217L23.2372 5.67855C21.9875 4.01236 19.4914 4.01151 18.241 5.67855L16.1961 8.40513C14.6366 6.82985 12.0065 7.06961 10.7654 8.93128L8.37183 12.5216C7.56541 12.5216 5.1113 12.5216 4.30439 12.5216C3.65611 12.5216 3.13045 13.0472 3.13045 13.6956C3.13045 14.3439 3.65604 14.8695 4.30439 14.8695H5.68983C5.76422 15.2418 7.54959 24.1686 7.62413 24.5409C6.36398 25.0778 5.47826 26.3286 5.47826 27.7826V30.1304C5.47826 30.7786 6.00384 31.3043 6.6522 31.3043H8.028C7.89771 31.6717 7.82606 32.0666 7.82606 32.4782C7.82606 32.8898 7.89764 33.2847 8.028 33.6522H1.17394C0.525586 33.6522 0 34.1778 0 34.8261C0 35.4744 0.525586 36 1.17394 36H34.8261C35.4744 36 36.0001 35.4745 36.0001 34.8261C36.0001 34.1778 35.4744 33.6522 34.8261 33.6522ZM20.1193 7.08733C20.4286 6.67488 21.0476 6.67214 21.359 7.08733L25.4348 12.5218H19.0195L17.619 10.4211L20.1193 7.08733ZM12.7189 10.2337C13.1848 9.53477 14.2073 9.53597 14.6725 10.2337L16.1979 12.5218H11.1935L12.7189 10.2337ZM28.6985 14.8696L28.2289 17.2174H8.55366L8.08411 14.8696C9.02454 14.8696 27.1812 14.8696 28.6985 14.8696ZM27.7594 19.5653L26.8202 24.261H9.96237L9.0232 19.5653H27.7594ZM7.82606 28.9566V27.7826C7.82606 27.1353 8.3527 26.6087 9 26.6087H27.7826C28.4299 26.6087 28.9565 27.1353 28.9565 27.7826V28.9566H7.82606ZM11.3478 33.6522C10.7005 33.6522 10.1739 33.1256 10.1739 32.4783C10.1739 31.831 10.7005 31.3044 11.3478 31.3044C11.9951 31.3044 12.5217 31.831 12.5217 32.4783C12.5217 33.1256 11.9951 33.6522 11.3478 33.6522ZM22.115 33.6522H14.6677C14.798 33.2848 14.8696 32.8899 14.8696 32.4783C14.8696 32.0667 14.798 31.6718 14.6677 31.3044H22.115C21.9847 31.6718 21.913 32.0667 21.913 32.4783C21.913 32.8899 21.9847 33.2848 22.115 33.6522ZM25.4348 33.6522C24.7875 33.6522 24.2608 33.1256 24.2608 32.4783C24.2608 31.831 24.7875 31.3044 25.4348 31.3044C26.0821 31.3044 26.6087 31.831 26.6087 32.4783C26.6087 33.1256 26.0821 33.6522 25.4348 33.6522Z" fill="#393931"/>
<path d="M32.478 2.3478H31.3041V1.17394C31.3041 0.525656 30.7785 0 30.1301 0C29.4818 0 28.9562 0.525586 28.9562 1.17394V2.34787H27.7823C27.1341 2.34787 26.6084 2.87346 26.6084 3.52181C26.6084 4.17016 27.134 4.69575 27.7823 4.69575H28.9563V5.86969C28.9563 6.51797 29.4819 7.04363 30.1302 7.04363C30.7786 7.04363 31.3041 6.51804 31.3041 5.86969V4.69568H32.4781C33.1264 4.69568 33.652 4.17009 33.652 3.52174C33.652 2.87339 33.1263 2.3478 32.478 2.3478Z" fill="#393931"/>
<path d="M6.65184 5.47825H5.47791V4.30431C5.47791 3.65603 4.95232 3.13037 4.30397 3.13037C3.65562 3.13037 3.13003 3.65596 3.13003 4.30431V5.47825H1.95616C1.30788 5.47825 0.782227 6.00383 0.782227 6.65218C0.782227 7.30053 1.30781 7.82612 1.95616 7.82612H3.1301V8.99999C3.1301 9.64827 3.65569 10.1739 4.30404 10.1739C4.95239 10.1739 5.47791 9.64827 5.47791 8.99999V7.82605H6.65184C7.30012 7.82605 7.82578 7.30046 7.82578 6.65211C7.82578 6.00376 7.30012 5.47825 6.65184 5.47825Z" fill="#393931"/>
</g>
<defs>
<clipPath id="clip0_2001_282">
<rect width="36" height="36" fill="white"/>
</clipPath>
</defs>
</svg>

<?xml version="1.0" encoding="utf-8"?>
<!-- Generator: Adobe Illustrator 27.1.1, SVG Export Plug-In . SVG Version: 6.00 Build 0)  -->
<svg version="1.1" id="Слой_1" xmlns="http://www.w3.org/2000/svg" xmlns:xlink="http://www.w3.org/1999/xlink" x="0px" y="0px"
	 viewBox="0 0 36 36" style="enable-background:new 0 0 36 36;" xml:space="preserve">
<style type="text/css">
	.st0{clip-path:url(#SVGID_00000059995241308450831880000007253976663726299323_);}
	.st1{fill:#393931;}
</style>
<g>
	<defs>
		<rect id="SVGID_1_" y="0" width="36" height="36"/>
	</defs>
	<clipPath id="SVGID_00000116201363398089359720000014426610758480696204_">
		<use xlink:href="#SVGID_1_"  style="overflow:visible;"/>
	</clipPath>
	<g style="clip-path:url(#SVGID_00000116201363398089359720000014426610758480696204_);">
		<path class="st1" d="M34.8,33.7h-6.1c0.1-0.4,0.2-0.8,0.2-1.2c0-0.4-0.1-0.8-0.2-1.2h1.4c0.6,0,1.2-0.5,1.2-1.2v-2.3
			c0-1.5-0.9-2.7-2.1-3.2c0.1-0.4,1.9-9.3,1.9-9.7h1.4c0.6,0,1.2-0.5,1.2-1.2c0-0.6-0.5-1.2-1.2-1.2c-2.5,0-1.8,0-4.1,0l-5.1-6.8
			c-1.2-1.7-3.7-1.7-5,0l-2,2.7c-1.6-1.6-4.2-1.3-5.4,0.5l-2.4,3.6c-0.8,0-3.3,0-4.1,0c-0.6,0-1.2,0.5-1.2,1.2
			c0,0.6,0.5,1.2,1.2,1.2h1.4c0.1,0.4,1.9,9.3,1.9,9.7c-1.3,0.5-2.1,1.8-2.1,3.2v2.3c0,0.6,0.5,1.2,1.2,1.2H8
			c-0.1,0.4-0.2,0.8-0.2,1.2c0,0.4,0.1,0.8,0.2,1.2H1.2c-0.6,0-1.2,0.5-1.2,1.2S0.5,36,1.2,36h33.7c0.6,0,1.2-0.5,1.2-1.2
			C36,34.2,35.5,33.7,34.8,33.7z M20.1,7.1c0.3-0.4,0.9-0.4,1.2,0l4.1,5.4H19l-1.4-2.1L20.1,7.1z M12.7,10.2c0.5-0.7,1.5-0.7,2,0
			l1.5,2.3h-5L12.7,10.2z M28.7,14.9l-0.5,2.3H8.6l-0.5-2.3C9,14.9,27.2,14.9,28.7,14.9z M27.8,19.6l-0.9,4.7H10L9,19.6H27.8z
			 M7.8,29v-1.2c0-0.6,0.5-1.2,1.2-1.2h18.8c0.6,0,1.2,0.5,1.2,1.2V29H7.8z M11.3,33.7c-0.6,0-1.2-0.5-1.2-1.2s0.5-1.2,1.2-1.2
			c0.6,0,1.2,0.5,1.2,1.2S12,33.7,11.3,33.7z M22.1,33.7h-7.4c0.1-0.4,0.2-0.8,0.2-1.2c0-0.4-0.1-0.8-0.2-1.2h7.4
			c-0.1,0.4-0.2,0.8-0.2,1.2C21.9,32.9,22,33.3,22.1,33.7z M25.4,33.7c-0.6,0-1.2-0.5-1.2-1.2s0.5-1.2,1.2-1.2
			c0.6,0,1.2,0.5,1.2,1.2S26.1,33.7,25.4,33.7z"/>
		<path class="st1" d="M32.5,2.3h-1.2V1.2c0-0.6-0.5-1.2-1.2-1.2C29.5,0,29,0.5,29,1.2v1.2h-1.2c-0.6,0-1.2,0.5-1.2,1.2
			s0.5,1.2,1.2,1.2H29v1.2C29,6.5,29.5,7,30.1,7c0.6,0,1.2-0.5,1.2-1.2V4.7h1.2c0.6,0,1.2-0.5,1.2-1.2S33.1,2.3,32.5,2.3z"/>
		<path class="st1" d="M6.7,5.5H5.5V4.3c0-0.6-0.5-1.2-1.2-1.2S3.1,3.7,3.1,4.3v1.2H2C1.3,5.5,0.8,6,0.8,6.7S1.3,7.8,2,7.8h1.2V9
			c0,0.6,0.5,1.2,1.2,1.2S5.5,9.6,5.5,9V7.8h1.2c0.6,0,1.2-0.5,1.2-1.2S7.3,5.5,6.7,5.5z"/>
	</g>
</g>
</svg>
